X:1
T:Title
%%score ( 1 2 ) { 3 | 4 }
L:1/8
Q:1/4=90
M:6/8
K:Bb
V:1 treble nm="Grand Piano, Soprano"
V:2 treble 
V:3 bass nm="Choir Pad, Repeat the Sweet Story"
V:4 bass 
V:1
 [DF][DF][EG] [DF][DF][B,D] | [DF][DB][FA] [EG] [DF]2 | [DF][EG][EG] [EG][FB][Fc] | %3
w: By~Pearl~Johnson~Sprague * * * * *|||
 [Fd] [Fc]2- [Fc]2- [Fc]/ z/ | [EF][DF][EG] [DF][DF][B,D] | [DF][DB][DA] [EG] [DF]2 | %6
w: |||
 [FB][FA][Fc] [Fc][Fc][FB] | [FA] [FB]2- [FB]2- [FB]/ z/ | [DF] [Fd]2- [Fd]2 [Ec] | %9
w: |||
 [DB] [DF]2- [DF]3/2 z/ [DB] | [Fd] [Fc]2- [Fc]2 [DB] | [Fc] [Fd]2- [Fd]2- [Fd]/ z/ | %12
w: |||
 [DF] [Fd]2- [Fd]2 [Fc] | [FB] [EG]2- [EG]3/2 z/ [EA] | [EB] [Fc]2- [Fc]2 [FB] | z B2- B3- | B6 |] %17
w: |||||
V:2
 x6 | x6 | x6 | x6 | x6 | x6 | x6 | x6 | x6 | x6 | x6 | x6 | x6 | x6 | x6 | [FA]FG G F2- | F6 |] %17
V:3
 B,B,B, B,B,F, | B,F,B, B, B,2 | B,B,B, B,B,A, | B, A,2- A,2- A,/ z/ | A,B,B, B,B,F, | %5
 B,F,F, B, B,2 | B,CA, A,A,[K:treble]D | C D2- D2- D/ z/ | B,B,B, B,B,B, | B,B,B, B, B,2 | %10
 B,A,A, A,A,B, | A,B,B, B, B,2 | B,/B,/B,B, B,B,A, | B,B,B, B, B,2 | B,A,A, A,A,[K:treble]D | %15
 CDE E D2- | D6 |] %17
V:4
 B,,B,,B,, B,,B,,B,, | B,,B,,B,, B,, B,,2 | B,,E,E, E,D,C, | B,, F,2- F,2- F,/ z/ | %4
 F,B,,B,, B,,B,,B,, | B,,B,,B,, B,, B,,2 | D,F,F, F,F,F, | F, B,,2- B,,2- B,,/ z/ | %8
 B,,B,,B,, B,,B,,B,, | B,,B,,B,, B,, B,,2 | B,,F,F, F,F,F, | .F,3 z3 | B,,/B,,/B,,B,, B,,B,,C, | %13
 D,E,E, E, E,2 | G,F,F, F,F,F, | F,B,,B,, B,, B,,2- | B,,6 |] %17

